X: 9520
T: Darkey's Dream
R: barndance
M: 4/4
K: Gmajor
D2 E>F G>B- B2|A2 G>A B>d- d2|g2 f>e d>BG>A|B2 A>G A2 d2|
D2 E>F G>B- B2|A2 G>A B>d- d2|g2 f>e d>BG>A|B>DE>F G2 g2|
d2 e>f g>b- b2|a2 g>a b>d'- d'2|g'2 f'>e' d'>bg>a|b2 a>g a2 d'2|
d2 e>f g>b- b2|a2 g>a b>d'- d'2|g'2 f'>e' d'>bg>a|b>de>f g2 (3def||
g2 g>a b>gd>B|d>ed>B d2 (3def|g2 g>a b>gd>B|B>AA>B A2 (3def|
g2 g>a b>gd>B|d>ed>B d2 (3def|g2 f2 (3efe d2|(3cdc (3BcB (3ABA G>E|
D2 E>F G>B- B2|A2 G>A B>d- d2|g2 f>e d>BG>A|B2 A>G A2 d2|
D2 E>F G>B- B2|A2 G>A B>d- d2|g2 f>e d>BG>A|B>DE>F G4||

